mobile/24/svg/reader-view-24.svg

<svg width="24" height="24" viewBox="0 0 24 24" fill="none" xmlns="http://www.w3.org/2000/svg">
<path fill-rule="evenodd" clip-rule="evenodd" d="M7 3.75C6.58625 3.75 6.25 4.08625 6.25 4.5V18.5C6.25 18.9138 6.58625 19.25 7 19.25H17C17.4138 19.25 17.75 18.9138 17.75 18.5V4.5C17.75 4.08625 17.4138 3.75 17 3.75H7ZM4.5 4.5C4.5 3.11975 5.61975 2 7 2H17C18.3802 2 19.5 3.11975 19.5 4.5V18.5C19.5 19.8802 18.3802 21 17 21H7C5.61975 21 4.5 19.8802 4.5 18.5V4.5Z" fill="black"/>
<path fill-rule="evenodd" clip-rule="evenodd" d="M8.75 6.25H15.25V8H8.75V6.25Z" fill="black"/>
<path fill-rule="evenodd" clip-rule="evenodd" d="M8.75 10.25H15.25V12H8.75V10.25Z" fill="black"/>
<path fill-rule="evenodd" clip-rule="evenodd" d="M8.75 14.25H12.722V16H8.75V14.25Z" fill="black"/>
</svg>

<svg width="24" height="24" fill="none" xmlns="http://www.w3.org/2000/svg"><path fill-rule="evenodd" clip-rule="evenodd" d="M7 3.75a.75.75 0 0 0-.75.75v14c0 .414.336.75.75.75h10a.75.75 0 0 0 .75-.75v-14a.75.75 0 0 0-.75-.75H7zm-2.5.75A2.5 2.5 0 0 1 7 2h10a2.5 2.5 0 0 1 2.5 2.5v14A2.5 2.5 0 0 1 17 21H7a2.5 2.5 0 0 1-2.5-2.5v-14z" fill="#000"/><path fill-rule="evenodd" clip-rule="evenodd" d="M8.75 6.25h6.5V8h-6.5V6.25zM8.75 10.25h6.5V12h-6.5v-1.75zM8.75 14.25h3.972V16H8.75v-1.75z" fill="#000"/></svg>
